src/static/images/resi.svg

<svg width="74" height="30" viewBox="0 0 74 30" version="1.1" xmlns="http://www.w3.org/2000/svg" xmlns:xlink="http://www.w3.org/1999/xlink">
<title>resi_logo_outlines</title>
<desc>Created using Figma</desc>
<g id="Canvas" transform="translate(526 -128)">
<g id="resi_logo_outlines">
<g id="Vector">
<use xlink:href="#path0_fill" transform="translate(-526 128)" fill="#BDBDBD"/>
</g>
</g>
</g>
<defs>
<path id="path0_fill" d="M -1.36872e-08 0.0318936C 0.0645844 0.0175415 0.100465 0.0103654 0.136345 0.00318934C 0.193753 -0.00398671 0.251162 0.00318934 0.30857 0.00318934C 6.23599 0.00318934 12.1562 0.00318934 18.0836 0.00318934C 18.1985 0.00318934 18.3204 -0.0111628 18.4353 0.0534217C 18.4927 0.0893019 18.5931 0.0534217 18.6721 0.0462457C 18.8228 0.0318936 18.9663 0.0103654 19.117 0.0103654C 19.3753 0.00318937 19.6337 0.00318934 19.892 0.00318934C 32.7874 0.00318934 45.6899 0.00318934 58.5853 0.00318934C 58.7072 0.00318934 58.8292 0.00318934 58.9441 0.00318934C 59.5397 -0.0111628 60.1353 0.0677738 60.7237 0.132358C 60.9534 0.161062 61.1758 0.189767 61.4054 0.225647C 61.592 0.254351 61.7714 0.304583 61.958 0.34764C 62.0943 0.376344 62.2235 0.405048 62.3599 0.433752C 62.5823 0.491161 62.7976 0.541393 63.0201 0.605977C 63.2712 0.684914 63.5152 0.76385 63.7592 0.857139C 63.996 0.943252 64.2328 1.04372 64.4696 1.14418C 64.6992 1.23747 64.9289 1.33793 65.1513 1.44557C 65.5101 1.61062 65.8618 1.79003 66.199 2.00531C 66.4861 2.19188 66.7947 2.35693 67.0745 2.55069C 67.6917 2.97407 68.2729 3.44052 68.8183 3.95719C 69.3206 4.43081 69.7942 4.94031 70.232 5.47851C 70.7415 6.11001 71.1936 6.77738 71.5882 7.48781C 71.8466 7.96143 72.0906 8.44222 72.2915 8.93737C 72.4494 9.32487 72.6072 9.70521 72.7221 10.1071C 72.7938 10.3511 72.8656 10.595 72.9373 10.839C 73.0019 11.083 73.0737 11.3342 73.1311 11.5782C 73.1742 11.7576 73.1957 11.9513 73.2244 12.1307C 73.2603 12.3532 73.2962 12.5828 73.332 12.8053C 73.3392 12.8268 73.3392 12.8483 73.3392 12.8698C 73.3679 13.3004 73.4181 13.7238 73.4253 14.1544C 73.4397 14.7141 73.4397 15.281 73.4253 15.8407C 73.411 16.2713 73.3751 16.7019 73.332 17.1252C 73.3033 17.4266 73.2531 17.728 73.2029 18.0222C 73.1526 18.2949 73.0809 18.5676 73.0163 18.8331C 72.966 19.0556 72.9158 19.2781 72.8512 19.4933C 72.7795 19.7445 72.7005 19.9957 72.6072 20.2396C 72.4566 20.6343 72.3059 21.0362 72.1336 21.4237C 71.8681 22.0193 71.5667 22.5934 71.2079 23.1316C 70.9855 23.4689 70.763 23.8133 70.519 24.1434C 70.2033 24.5668 69.866 24.9687 69.5 25.349C 69.1986 25.6647 68.8901 25.9805 68.56 26.2675C 68.3375 26.4613 68.115 26.655 67.8854 26.8416C 67.4548 27.2004 66.9884 27.509 66.5148 27.8104C 66.1775 28.0257 65.8187 28.2122 65.4671 28.3916C 65.1872 28.5352 64.893 28.6715 64.606 28.8007C 64.3979 28.894 64.1754 28.9729 63.9601 29.0518C 63.6515 29.1666 63.343 29.2743 63.0272 29.3748C 62.6828 29.4752 62.3383 29.5829 61.9867 29.6403C 61.8216 29.669 61.6566 29.7192 61.4916 29.7551C 61.348 29.7838 61.1973 29.8125 61.0538 29.8268C 60.7811 29.8555 60.5084 29.8843 60.2357 29.913C 58.7862 30.0565 57.3366 29.9775 55.8871 29.9847C 43.8815 29.9919 31.8688 29.9919 19.8633 29.9919C 19.6193 29.9919 19.3682 29.9991 19.1242 29.9847C 18.751 29.9632 18.3779 29.9417 18.0119 29.9058C 17.6961 29.8771 17.3876 29.8268 17.079 29.7694C 16.8063 29.7192 16.5336 29.6546 16.2681 29.5829C 15.9811 29.5111 15.694 29.4393 15.407 29.3532C 15.0912 29.2528 14.7683 29.1451 14.4597 29.0303C 14.2086 28.937 13.9574 28.8294 13.7134 28.7146C 13.3403 28.5352 12.9671 28.3558 12.6011 28.162C 11.9625 27.8247 11.3597 27.4157 10.7856 26.9708C 10.1828 26.5115 9.62308 26.002 9.09923 25.4495C 8.68302 25.0117 8.30269 24.5524 7.94388 24.0717C 7.75013 23.8205 7.58508 23.555 7.41286 23.2823C 7.21193 22.9665 7.01817 22.6508 6.83877 22.3207C 6.64502 21.9547 6.45844 21.5744 6.28622 21.1941C 6.13552 20.8496 5.99918 20.498 5.87001 20.1392C 5.77672 19.8808 5.71213 19.6082 5.64037 19.3426C 5.57579 19.1202 5.51121 18.8905 5.46097 18.6609C 5.41074 18.46 5.37486 18.2591 5.33898 18.0581C 5.29592 17.8428 5.26004 17.6276 5.22416 17.4195C 5.22416 17.4051 5.21699 17.3979 5.21699 17.3836C 5.18828 17.0607 5.14523 16.7377 5.13087 16.4076C 5.10935 15.7116 5.09499 15.0227 5.09499 14.3266C 5.09499 13.4368 5.11652 12.5469 5.11652 11.6571C 5.1237 10.1501 5.11652 8.63597 5.11652 7.129C 5.11652 6.82761 5.05911 6.54057 5.00888 6.24635C 4.95865 5.94496 4.86536 5.65074 4.77207 5.35652C 4.68596 5.09818 4.57114 4.84702 4.45633 4.60304C 4.19081 4.02895 3.85354 3.49075 3.46603 2.98125C 3.14311 2.55786 2.77713 2.16318 2.38962 1.7972C 1.78684 1.22312 1.13382 0.713618 0.416211 0.283055C 0.279866 0.218471 0.150697 0.132358 -1.36872e-08 0.0318936ZM 24.2837 10.064C 24.1689 10.0712 24.0541 10.064 23.9536 10.0927C 23.7168 10.1429 23.4657 10.1142 23.2289 10.2004C 23.0279 10.2721 22.8055 10.2936 22.6045 10.3726C 22.3964 10.4443 22.2027 10.552 22.0018 10.6453C 21.643 10.8103 21.3272 11.04 21.033 11.2911C 20.624 11.6356 20.2795 12.0446 19.9996 12.5039C 19.8059 12.8196 19.648 13.1497 19.5476 13.5013C 19.4901 13.6879 19.4614 13.8817 19.404 14.0611C 19.3107 14.3338 19.3036 14.6136 19.2892 14.8935C 19.2605 15.4102 19.3394 15.9197 19.4758 16.422C 19.5834 16.831 19.7413 17.2114 19.9494 17.5773C 20.2867 18.1658 20.7316 18.6753 21.277 19.0843C 21.6143 19.3355 21.9731 19.5436 22.3606 19.7086C 22.7194 19.8593 23.0925 19.9741 23.4728 20.0315C 23.7886 20.0746 24.1115 20.0889 24.4344 20.1033C 24.5851 20.1105 24.743 20.0746 24.8937 20.0602C 25.3386 20.0244 25.7548 19.9024 26.1639 19.7373C 26.6303 19.5507 27.0537 19.2924 27.4412 18.9767C 27.9579 18.5604 28.3597 18.0581 28.6755 17.484C 28.8262 17.2042 28.9554 16.9171 29.0415 16.6086C 29.1419 16.2856 29.2209 15.9627 29.2424 15.6254C 29.2496 15.4676 29.2854 15.3097 29.2854 15.1446C 29.2854 14.9796 29.2496 14.8146 29.2424 14.6495C 29.228 14.2907 29.1491 13.9391 29.0415 13.5946C 28.9266 13.2358 28.776 12.9057 28.5965 12.5828C 28.3382 12.1307 28.0153 11.7289 27.635 11.3844C 26.9102 10.7314 26.0562 10.3295 25.0946 10.1573C 24.8148 10.0927 24.5421 10.0855 24.2837 10.064ZM 60.2501 15.0801C 60.2716 12.2599 57.9825 10.064 55.2556 10.0712C 52.4856 10.0855 50.2682 12.2886 50.2682 15.0801C 50.2754 17.8428 52.4569 20.0674 55.2699 20.0746C 58.0327 20.0818 60.2644 17.85 60.2501 15.0801ZM 39.253 23.0598C 41.1905 23.1101 42.7692 21.4883 42.7621 19.5794C 42.7621 17.6491 41.1833 16.0991 39.296 16.0847C 37.3442 16.0632 35.7654 17.6634 35.7582 19.5651C 35.7511 21.4524 37.337 23.1029 39.253 23.0598Z"/>
</defs>
</svg>

<svg width="74" height="30" viewBox="0 0 74 30" xmlns="http://www.w3.org/2000/svg" xmlns:xlink="http://www.w3.org/1999/xlink"><title>resi_logo_outlines</title><desc>Created using Figma</desc><use xlink:href="#a" fill="#BDBDBD"/><defs><path id="a" d="M0 .032L.136.003c.058-.007.115 0 .173 0h17.775c.114 0 .236-.014.351.05.058.036.158 0 .237-.007.15-.014.294-.036.445-.036.258-.007.517-.007.775-.007h39.053c.595-.014 1.19.065 1.779.13.23.028.452.057.681.093.187.028.366.079.553.122.136.028.266.057.402.086.222.057.438.107.66.172.251.079.495.158.74.251.236.086.473.187.71.287.23.093.459.194.681.302.36.165.71.344 1.048.56.287.186.596.35.876.545.617.423 1.198.89 1.743 1.406.503.474.976.983 1.414 1.522a14.166 14.166 0 0 1 2.06 3.459c.157.387.315.767.43 1.17l.215.731c.065.244.137.495.194.74.043.179.065.372.093.552l.108.674c.007.022.007.043.007.065.029.43.08.854.086 1.284.015.56.015 1.127 0 1.687-.014.43-.05.86-.093 1.284-.029.302-.079.603-.13.897-.05.273-.121.546-.186.811-.05.223-.1.445-.165.66-.072.252-.15.503-.244.747-.15.394-.301.796-.473 1.184-.266.595-.567 1.17-.926 1.708-.222.337-.445.681-.689 1.011a12.49 12.49 0 0 1-1.019 1.206c-.301.316-.61.631-.94.918-.222.194-.445.388-.675.575a13.112 13.112 0 0 1-2.418 1.55c-.28.143-.574.28-.861.409-.208.093-.43.172-.646.25a19.75 19.75 0 0 1-.933.324c-.344.1-.689.208-1.04.265-.165.029-.33.08-.495.115a4.624 4.624 0 0 1-.438.072l-.818.086c-1.45.143-2.9.064-4.349.072-12.005.007-24.018.007-36.024.007-.244 0-.495.007-.739-.007a27.87 27.87 0 0 1-1.112-.08 10.07 10.07 0 0 1-.933-.136 10.23 10.23 0 0 1-.81-.186 19.25 19.25 0 0 1-.862-.23c-.316-.1-.639-.208-.947-.323a9.703 9.703 0 0 1-.747-.315c-.373-.18-.746-.36-1.112-.553a12.562 12.562 0 0 1-1.815-1.191 14.106 14.106 0 0 1-1.687-1.521 15.076 15.076 0 0 1-1.155-1.378c-.194-.252-.359-.517-.531-.79a16.2 16.2 0 0 1-.574-.961 21 21 0 0 1-.553-1.127c-.15-.344-.287-.696-.416-1.055-.093-.258-.158-.53-.23-.796a11.004 11.004 0 0 1-.179-.682c-.05-.201-.086-.402-.122-.603-.043-.215-.079-.43-.115-.639 0-.014-.007-.021-.007-.035-.029-.323-.072-.646-.086-.976a67.107 67.107 0 0 1-.036-2.081c0-.89.022-1.78.022-2.67.007-1.507 0-3.021 0-4.528 0-.301-.058-.588-.108-.883-.05-.301-.144-.595-.237-.89a6.726 6.726 0 0 0-.316-.753 8.762 8.762 0 0 0-.99-1.622A9.894 9.894 0 0 0 2.39 1.797 11.257 11.257 0 0 0 .416.283 3.406 3.406 0 0 1 0 .032zm24.284 10.032c-.115.007-.23 0-.33.029-.237.05-.488.021-.725.107-.201.072-.424.094-.624.173-.209.071-.402.179-.603.272a4.225 4.225 0 0 0-.969.646A4.932 4.932 0 0 0 20 12.504a4.024 4.024 0 0 0-.452.997c-.058.187-.087.38-.144.56-.093.273-.1.553-.115.832-.029.517.05 1.027.187 1.529.107.409.265.79.473 1.155a4.944 4.944 0 0 0 1.328 1.507c.337.252.696.46 1.084.625.358.15.732.265 1.112.323.316.043.639.057.961.071.151.007.309-.028.46-.043a4.294 4.294 0 0 0 1.27-.323c.466-.186.89-.445 1.277-.76a4.945 4.945 0 0 0 1.235-1.493c.15-.28.28-.567.366-.875.1-.323.179-.646.2-.984.008-.157.043-.315.043-.48 0-.165-.035-.33-.043-.495a4.097 4.097 0 0 0-.2-1.055 5.548 5.548 0 0 0-.446-1.012 4.873 4.873 0 0 0-.961-1.199 5.051 5.051 0 0 0-2.54-1.227c-.28-.064-.553-.072-.811-.093zM60.25 15.08c.022-2.82-2.267-5.016-4.994-5.009a4.981 4.981 0 0 0-4.988 5.01 4.972 4.972 0 0 0 5.002 4.994 4.959 4.959 0 0 0 4.98-4.995zm-20.997 7.98c1.938.05 3.516-1.572 3.51-3.48 0-1.93-1.58-3.48-3.467-3.495-1.952-.022-3.53 1.578-3.538 3.48-.007 1.887 1.579 3.538 3.495 3.495z"/></defs></svg>
